public/brand/namecheap.svg

<svg width="85" height="47" viewBox="0 0 85 47" fill="none" xmlns="http://www.w3.org/2000/svg">
<path d="M76.1944 0C74.7907 0.000130921 73.4125 0.375725 72.2028 1.08785C70.993 1.79997 69.9958 2.82269 69.3144 4.05L69.1544 4.38L63.0244 16.54L55.2244 31.91L60.3344 41.98L60.6144 42.53C61.4023 43.9236 62.5902 45.0488 64.0244 45.76C65.4569 45.0462 66.6441 43.9217 67.4344 42.53L67.7144 41.98L83.0244 11.77L83.3944 11.04C83.9151 9.84511 84.1305 8.53949 84.0212 7.24066C83.9118 5.94184 83.4812 4.6906 82.7681 3.59957C82.055 2.50855 81.0817 1.61199 79.9359 0.990625C78.7901 0.369256 77.5078 0.0425781 76.2044 0.04L76.1944 0ZM28.8744 14.63L23.7744 4.63L23.4944 4.08C22.7131 2.68733 21.5275 1.56453 20.0944 0.86C18.6639 1.56344 17.4789 2.6822 16.6944 4.07L16.4044 4.63L1.07442 34.81L0.704423 35.53C-0.122284 37.3813 -0.20161 39.4805 0.483019 41.3889C1.16765 43.2974 2.56326 44.8674 4.37828 45.7711C6.1933 46.6747 8.28729 46.842 10.2228 46.238C12.1582 45.634 13.7855 44.3055 14.7644 42.53L14.9344 42.21L21.1044 30.05L28.8944 14.69L28.8744 14.63Z" fill="#FF5100"/>
<path d="M76.1744 0C74.7721 0.000864611 73.3956 0.376863 72.1876 1.089C70.9796 1.80114 69.9842 2.82348 69.3044 4.05L69.1344 4.38L62.9644 16.54L55.1544 31.91L60.2744 41.98L60.5544 42.53C61.3393 43.9259 62.528 45.0519 63.9644 45.76C65.4008 45.0519 66.5895 43.9259 67.3744 42.53L67.6644 41.98L83.0244 11.77L83.3844 11.04C83.9051 9.84511 84.1205 8.53949 84.0112 7.24066C83.9018 5.94184 83.4712 4.6906 82.7581 3.59957C82.045 2.50855 81.0717 1.61199 79.9259 0.990625C78.7801 0.369256 77.4978 0.0425781 76.1944 0.04L76.1744 0Z" fill="url(#paint0_linear_29_88)"/>
<path d="M7.88446 46.5798C9.28176 46.5839 10.6549 46.2155 11.8624 45.5124C13.07 44.8093 14.0683 43.797 14.7545 42.5798L14.9245 42.2498L21.1045 30.0898L28.9045 14.7198L23.7945 4.59982L23.5145 4.04982C22.7239 2.65474 21.5324 1.52941 20.0945 0.819824C18.6602 1.53105 17.4723 2.65622 16.6845 4.04982L16.4045 4.59982L1.02446 34.8098L0.654455 35.5398C0.13375 36.7347 -0.0816309 38.0403 0.0277037 39.3392C0.137038 40.638 0.567655 41.8892 1.28079 42.9803C1.99392 44.0713 2.96718 44.9678 4.11296 45.5892C5.25873 46.2106 6.54104 46.5372 7.84446 46.5398L7.88446 46.5798Z" fill="url(#paint1_linear_29_88)"/>
<path d="M28.8745 14.63L23.7745 4.63004L23.4945 4.08004C22.7096 2.68412 21.5209 1.55818 20.0845 0.850039C20.5621 0.616125 21.061 0.428598 21.5745 0.290039C22.2282 0.124374 22.9 0.0404007 23.5745 0.0400391H34.2545C35.6488 0.0438907 37.0175 0.415795 38.222 1.11816C39.4266 1.82052 40.4243 2.82844 41.1145 4.04004L41.3945 4.59004L55.2045 31.95L60.2945 41.95L60.5745 42.5C61.3682 43.9107 62.5712 45.0474 64.0245 45.76C62.9428 46.2859 61.7571 46.5626 60.5545 46.57H49.8145C48.4216 46.5654 47.0546 46.1931 45.8518 45.4908C44.649 44.7884 43.653 43.7808 42.9645 42.57L42.6745 42.02L28.8745 14.63Z" fill="#FF8C44"/>
<defs>
<linearGradient id="paint0_linear_29_88" x1="1077.75" y1="4345" x2="2864.64" y2="513.298" gradientUnits="userSpaceOnUse">
<stop stop-color="#D4202C"/>
<stop offset="0.1" stop-color="#DC3D29" stop-opacity="0.79"/>
<stop offset="0.2" stop-color="#E45926" stop-opacity="0.58"/>
<stop offset="0.32" stop-color="#EA7123" stop-opacity="0.4"/>
<stop offset="0.43" stop-color="#F08521" stop-opacity="0.25"/>
<stop offset="0.55" stop-color="#F4941F" stop-opacity="0.14"/>
<stop offset="0.68" stop-color="#F79F1E" stop-opacity="0.06"/>
<stop offset="0.82" stop-color="#F8A51D" stop-opacity="0.02"/>
<stop offset="1" stop-color="#F9A71D" stop-opacity="0"/>
</linearGradient>
<linearGradient id="paint1_linear_29_88" x1="1867.83" y1="231.816" x2="80.7513" y2="4063.95" gradientUnits="userSpaceOnUse">
<stop stop-color="#D4202C"/>
<stop offset="0.1" stop-color="#DC3D29" stop-opacity="0.79"/>
<stop offset="0.2" stop-color="#E45926" stop-opacity="0.58"/>
<stop offset="0.32" stop-color="#EA7123" stop-opacity="0.4"/>
<stop offset="0.43" stop-color="#F08521" stop-opacity="0.25"/>
<stop offset="0.55" stop-color="#F4941F" stop-opacity="0.14"/>
<stop offset="0.68" stop-color="#F79F1E" stop-opacity="0.06"/>
<stop offset="0.82" stop-color="#F8A51D" stop-opacity="0.02"/>
<stop offset="1" stop-color="#F9A71D" stop-opacity="0"/>
</linearGradient>
</defs>
</svg>

<svg width="258" height="47" xmlns="http://www.w3.org/2000/svg"><defs><linearGradient x1="35.403%" y1="94.952%" x2="63.019%" y2="1.136%" id="a"><stop stop-color="#D4202C" offset="0%"/><stop stop-color="#DC3D29" stop-opacity=".79" offset="10%"/><stop stop-color="#E45926" stop-opacity=".58" offset="20%"/><stop stop-color="#EA7123" stop-opacity=".4" offset="32%"/><stop stop-color="#F08521" stop-opacity=".25" offset="43%"/><stop stop-color="#F4941F" stop-opacity=".14" offset="55%"/><stop stop-color="#F79F1E" stop-opacity=".06" offset="68%"/><stop stop-color="#F8A51D" stop-opacity=".02" offset="82%"/><stop stop-color="#F9A71D" stop-opacity="0" offset="100%"/></linearGradient><linearGradient x1="64.621%" y1="5.048%" x2="36.986%" y2="98.864%" id="b"><stop stop-color="#D4202C" offset="0%"/><stop stop-color="#DC3D29" stop-opacity=".79" offset="10%"/><stop stop-color="#E45926" stop-opacity=".58" offset="20%"/><stop stop-color="#EA7123" stop-opacity=".4" offset="32%"/><stop stop-color="#F08521" stop-opacity=".25" offset="43%"/><stop stop-color="#F4941F" stop-opacity=".14" offset="55%"/><stop stop-color="#F79F1E" stop-opacity=".06" offset="68%"/><stop stop-color="#F8A51D" stop-opacity=".02" offset="82%"/><stop stop-color="#F9A71D" stop-opacity="0" offset="100%"/></linearGradient></defs><g fill="none"><path d="M76.17 0a7.87 7.87 0 0 0-6.88 4.05l-.16.33L63 16.54l-7.8 15.37 5.11 10.07.28.55A8 8 0 0 0 64 45.76a8.05 8.05 0 0 0 3.41-3.23l.28-.55L83 11.77l.37-.73a7.86 7.86 0 0 0-7.19-11L76.17 0zM28.85 14.63l-5.1-10-.28-.55a7.89 7.89 0 0 0-3.4-3.22 7.92 7.92 0 0 0-3.4 3.21l-.29.56L1.05 34.81l-.37.72a7.86 7.86 0 0 0 14.06 7l.17-.32 6.17-12.16 7.79-15.36-.02-.06z" fill="#FF5100"/><path d="M76.174 0a7.86 7.86 0 0 0-6.87 4.05l-.17.33-6.17 12.16-7.81 15.37 5.12 10.07.28.55a7.94 7.94 0 0 0 3.41 3.23 7.94 7.94 0 0 0 3.41-3.23l.29-.55 15.36-30.21.36-.73a7.86 7.86 0 0 0-7.19-11l-.02-.04z" fill="url(#a)" transform="translate(-.024)"/><path d="M7.884 46.58a7.86 7.86 0 0 0 6.87-4l.17-.33 6.18-12.16 7.8-15.37-5.11-10.12-.28-.55a8 8 0 0 0-3.42-3.23 8 8 0 0 0-3.41 3.23l-.28.55-15.38 30.21-.37.73a7.86 7.86 0 0 0 7.19 11l.04.04z" fill="url(#b)" transform="translate(-.024)"/><path d="M28.85 14.63l-5.1-10-.28-.55A7.94 7.94 0 0 0 20.06.85a8.31 8.31 0 0 1 1.49-.56 8.16 8.16 0 0 1 2-.25h10.68a7.92 7.92 0 0 1 6.86 4l.28.55 13.81 27.36 5.09 10 .28.55A8 8 0 0 0 64 45.76a8.05 8.05 0 0 1-3.47.81H49.79a7.91 7.91 0 0 1-6.85-4l-.29-.55-13.8-27.39z" fill="#FF8C44"/><path d="M97 23.82a.76.76 0 0 1 .84-.84h.6a.75.75 0 0 1 .8.84v1.94c0 .407-.044.812-.13 1.21h.07a7.43 7.43 0 0 1 6.8-4.39c4.19 0 5.66 2.38 5.66 6.53V39a.76.76 0 0 1-.84.84h-.63a.74.74 0 0 1-.81-.84v-9.28c0-2.65-.43-5-3.68-5-3.59 0-6.4 2.95-6.4 6.88V39a.74.74 0 0 1-.81.84h-.63A.76.76 0 0 1 97 39V23.82zm26.89 5.7h1v-.54c0-3.25-1.78-4.36-4.16-4.36a8 8 0 0 0-4.09 1.18.79.79 0 0 1-1.13-.27l-.21-.34a.76.76 0 0 1 .24-1.14 10.34 10.34 0 0 1 5.36-1.47c4 0 6.27 2.24 6.27 6.47v10a.74.74 0 0 1-.81.84h-.53a.75.75 0 0 1-.84-.84v-1.39a7.14 7.14 0 0 1 .1-1.27H125a6.25 6.25 0 0 1-5.7 3.9c-2.85 0-5.7-1.67-5.7-4.92 0-5.55 7.04-5.85 10.29-5.85zm-4.19 8.77c3.25 0 5.16-3.35 5.16-6.3v-.8h-.94c-2.65 0-8 .1-8 3.88.02 1.62 1.27 3.22 3.78 3.22zm10.69-14.47a.76.76 0 0 1 .84-.84h.6a.75.75 0 0 1 .8.84v1.94c0 .407-.044.812-.13 1.21h.07a7.15 7.15 0 0 1 6.2-4.39c3.11 0 4.72 1.44 5.19 4.22h.04a7.16 7.16 0 0 1 6.2-4.22c4.09 0 5.59 2.38 5.59 6.53V39a.76.76 0 0 1-.83.84h-.61a.76.76 0 0 1-.84-.84v-9.32c0-2.74-.56-5-3.61-5-3.39 0-5.67 3.55-5.67 7v7.3a.73.73 0 0 1-.8.84h-.64a.76.76 0 0 1-.84-.84v-9.3c0-2.54-.37-5-3.55-5-3.42 0-5.76 3.62-5.76 7v7.3a.74.74 0 0 1-.81.84h-.63a.76.76 0 0 1-.84-.84l.03-15.16zm35.89-1.24c4.49 0 7 3.25 7 8a.84.84 0 0 1-.88.84h-12.09c.1 4.29 3.05 6.74 6.54 6.74a7.17 7.17 0 0 0 4.42-1.55.7.7 0 0 1 1.11.2l.27.41a.78.78 0 0 1-.24 1.1 9.51 9.51 0 0 1-5.63 1.97 8.51 8.51 0 0 1-8.78-8.86c0-5.53 3.72-8.85 8.28-8.85zm4.72 7.17c-.14-3.55-2.28-5.3-4.8-5.3a5.82 5.82 0 0 0-5.8 5.3H171zm13.17-7.17a8.84 8.84 0 0 1 5.6 1.91.72.72 0 0 1 .1 1.14l-.23.37c-.3.47-.67.47-1.14.17a7 7 0 0 0-4.26-1.55 6.5 6.5 0 0 0-6.57 6.81 6.5 6.5 0 0 0 6.6 6.77 7.35 7.35 0 0 0 4.73-1.78.67.67 0 0 1 1.11.2l.23.34a.8.8 0 0 1-.2 1.13 9.32 9.32 0 0 1-6 2.15 8.53 8.53 0 0 1-8.84-8.81 8.59 8.59 0 0 1 8.87-8.85zm8.48-5.46a.73.73 0 0 1 .8-.84h.64a.76.76 0 0 1 .84.84v8.41c0 .46-.043.919-.13 1.37h.06a7.43 7.43 0 0 1 6.74-4.32c4.19 0 5.66 2.38 5.66 6.53V39c0 .54-.26.84-.8.84h-.64a.76.76 0 0 1-.84-.84v-9.28c0-2.65-.4-5-3.68-5-3.55 0-6.37 2.92-6.37 7v7.3a.76.76 0 0 1-.84.84h-.64a.73.73 0 0 1-.8-.84v-21.9zm25.1 5.46c4.49 0 7 3.25 7 8a.84.84 0 0 1-.87.84h-12.09c.1 4.29 3.05 6.74 6.53 6.74a7.2 7.2 0 0 0 4.43-1.55.69.69 0 0 1 1.1.2l.27.41a.78.78 0 0 1-.23 1.1 9.57 9.57 0 0 1-5.63 1.97 8.52 8.52 0 0 1-8.82-8.81c0-5.58 3.75-8.9 8.31-8.9zm4.73 7.17c-.13-3.55-2.28-5.3-4.8-5.3a5.8 5.8 0 0 0-5.79 5.3h10.59zm13.64-.23h1v-.54c0-3.25-1.78-4.36-4.16-4.36a7.85 7.85 0 0 0-4.08 1.18.8.8 0 0 1-1.14-.27l-.2-.34a.76.76 0 0 1 .23-1.14 10.34 10.34 0 0 1 5.36-1.47c4 0 6.27 2.24 6.27 6.47v10a.74.74 0 0 1-.81.84H238a.75.75 0 0 1-.84-.84v-1.39a7.14 7.14 0 0 1 .1-1.27h-.07a6.25 6.25 0 0 1-5.66 3.9c-2.85 0-5.7-1.67-5.7-4.92 0-5.55 7.04-5.85 10.29-5.85zm-4.19 8.77c3.25 0 5.16-3.35 5.16-6.3v-.8h-.94c-2.65 0-8 .1-8 3.88.02 1.62 1.26 3.22 3.78 3.22zm10.72-14.47a.74.74 0 0 1 .81-.84h.54a.72.72 0 0 1 .81.77v1.21a6 6 0 0 1-.1 1.14h.06a6.28 6.28 0 0 1 5.9-3.52c4.53 0 7.34 3.62 7.34 8.85 0 5.23-3.19 8.86-7.58 8.86a6.13 6.13 0 0 1-5.57-3.42h-.06c.09.488.134.984.13 1.48v7.4a.76.76 0 0 1-.84.84h-.63a.74.74 0 0 1-.81-.84V23.82zm7.54 14.38c3 0 5.47-2.48 5.47-6.77 0-4.13-2.22-6.77-5.33-6.77-2.82 0-5.47 2-5.47 6.8 0 3.38 1.88 6.74 5.33 6.74z" fill="#6E6F71"/></g></svg>
